uiw/qrcode.svg

<svg xmlns="http://www.w3.org/2000/svg" viewBox="0 0 20 20" height="1em" width="1em">
  <path fill="#555" d="M1.36339052,1.36363636 L1.36339052,7.72727273 L7.72587959,7.72727273 L7.72587959,1.36363636 L1.36339052,1.36363636 Z M9.08927011,10.9090909 L9.08927011,20 L0,20 L0,10.9090909 L9.08927011,10.9090909 Z M7.72587959,12.2727273 L1.36339052,12.2727273 L1.36339052,18.6363636 L7.72587959,18.6363636 L7.72587959,12.2727273 Z M5.99381387,14.146141 L5.99381387,16.8734137 L3.26703283,16.8734137 L3.26703283,14.146141 L5.99381387,14.146141 Z M9.08927011,0 L9.08927011,9.09090909 L0,9.09090909 L0,0 L9.08927011,0 Z M5.99381387,3.23705009 L3.26703283,3.23705009 L3.26703283,5.96432282 L5.99381387,5.96432282 L5.99381387,3.23705009 Z M19.9925664,16.9316101 L19.9925664,19.998886 L15.3832944,19.998886 L15.3832944,18.6352497 L18.6291758,18.6352497 L18.6291758,16.9316101 L19.9925664,16.9316101 Z M13.8426588,18.6333535 L13.8426588,19.9969899 L10.9058526,19.9969899 L10.9058526,18.6333535 L13.8426588,18.6333535 Z M12.2682678,10.9029735 L12.2682678,16.901918 L10.9048773,16.901918 L10.9048773,10.9029735 L12.2682678,10.9029735 Z M15.5384135,14.145591 L15.5384135,15.5075628 L16.9038428,15.5075628 L16.9038428,16.8711992 L14.175023,16.8711992 L14.175023,14.145591 L15.5384135,14.145591 Z M20,13.8508437 L20,15.3797994 L18.6366095,15.3797994 L18.6366095,13.8508437 L20,13.8508437 Z M19.9899867,10.9443803 L19.9899867,12.3080167 L15.3856451,12.3080167 L15.3856451,10.9443803 L19.9899867,10.9443803 Z M19.9963942,0 L19.9963942,9.09090909 L10.9071241,9.09090909 L10.9071241,0 L19.9963942,0 Z M18.6330037,1.36363636 L12.2705146,1.36363636 L12.2705146,7.72727273 L18.6330037,7.72727273 L18.6330037,1.36363636 Z M16.900938,3.23705009 L16.900938,5.96432282 L14.174157,5.96432282 L14.174157,3.23705009 L16.900938,3.23705009 Z"/>
</svg>

<svg xmlns="http://www.w3.org/2000/svg" viewBox="0 0 20 20" height="1em" width="1em">
  <path fill="#555" d="M1.363 1.364v6.363h6.363V1.364H1.363Zm7.726 9.545V20H0v-9.09h9.09Zm-1.363 1.364H1.363v6.363h6.363v-6.363Zm-1.732 1.873v2.727H3.267v-2.727h2.727ZM9.089 0v9.09H0V0h9.09ZM5.994 3.237H3.267v2.727h2.727V3.237Zm13.999 13.695v3.067h-4.61v-1.364h3.246v-1.703h1.364Zm-6.15 1.701v1.364h-2.937v-1.364h2.937Zm-1.575-7.73v5.999h-1.363v-5.999h1.363Zm3.27 3.243v1.362h1.366v1.363h-2.729v-2.725h1.363ZM20 13.85v1.529h-1.363v-1.53H20Zm-.01-2.907v1.364h-4.604v-1.364h4.604ZM19.996 0v9.09h-9.089V0h9.09Zm-1.363 1.364h-6.362v6.363h6.362V1.364Zm-1.732 1.873v2.727h-2.727V3.237h2.727Z"/>
</svg>
